X: 29
T:New Stepny
M:6/4
L:1/4
S:Wright 1713
N:bar 3 strain 4 is as printed  d e/d/b/a/ might be better.
Z:p
K:Gminor
G2gf>edf3|cAFF2AcAF|G2ba>g^fg3|dBGG2BdBG||
g2d=e2cf3|cAFF2AcAF|G2bag^fg3|dBGG2BdBG||
a>gfa>gfa>gf|cAFF2AcAF|b>agb>agg3|dBGG2BdBG||
d2cB2AG2A/B/|cAFF2AcAF|de/d/B/A/ cd/c/B/A/Bc/B/A/G/|dBGG2BdBG||
f>efg>fga>ga|bBFF2AcAF|agfbagag^f|gGGG2ABAG||
dBdcAcBGB|AFFF2AcAF|dB/c/dcA/B/cBG/A/B|DGGG2ABAG||
